X:19
T: Fülemüle, kis madárka
O: Gyöngyöspata (Heves), Racskó Gergely (64), 1952.04
Q: "Tempo guisto" 1/4=90
M:4/4
L:1/4
K:D
D/C/D/E/ FE | D2 A z | 
G/F/G/A/ B A | E2 Ez | 
A<A dB | A/B/A/G/ F D | 
D/A,/D/E/ F<E | D2 Dz |

